www/assets/icons/table_view.svg

<svg xmlns="http://www.w3.org/2000/svg" width="24" height="24" viewBox="0 0 24 24" fill='currentColor'><path d="M19 7H9c-1.1 0-2 .9-2 2v10c0 1.1.9 2 2 2h10c1.1 0 2-.9 2-2V9c0-1.1-.9-2-2-2m0 2v2H9V9zm-6 6v-2h2v2zm2 2v2h-2v-2zm-4-2H9v-2h2zm6-2h2v2h-2zm-8 4h2v2H9zm8 2v-2h2v2zM6 17H5c-1.1 0-2-.9-2-2V5c0-1.1.9-2 2-2h10c1.1 0 2 .9 2 2v1h-2V5H5v10h1z"/></svg>

<svg width="24" height="24" viewBox="0 0 24 24" xmlns="http://www.w3.org/2000/svg" fill='currentColor'><path d="M19 7H9C7.9 7 7 7.9 7 9V19C7 20.1 7.9 21 9 21H19C20.1 21 21 20.1 21 19V9C21 7.9 20.1 7 19 7ZM19 9V11H9V9H19ZM13 15V13H15V15H13ZM15 17V19H13V17H15ZM11 15H9V13H11V15ZM17 13H19V15H17V13ZM9 17H11V19H9V17ZM17 19V17H19V19H17ZM6 17H5C3.9 17 3 16.1 3 15V5C3 3.9 3.9 3 5 3H15C16.1 3 17 3.9 17 5V6H15V5H5V15H6V17Z"/></svg>
